svg/300/outlined/mystery.svg

<svg xmlns="http://www.w3.org/2000/svg" width="48" height="48" viewBox="0 -960 960 960"><path d="M440-225.385q122.692 0 208.654-85.961Q734.615-397.308 734.615-520t-85.961-208.654Q562.692-814.615 440-814.615t-208.654 85.961Q145.385-642.692 145.385-520t85.961 208.654Q317.308-225.385 440-225.385ZM440-520Zm0 153.846q-80.692 0-143.269-42.385Q234.154-450.923 206.539-520q27.615-68.077 90.192-110.961Q359.308-673.846 440-673.846q79.692 0 142.269 42.885Q644.846-588.077 673.076-520q-28.23 69.077-90.807 111.461Q519.692-366.154 440-366.154Zm0-47.692q56.923 0 104.846-28.231 47.924-28.23 75.462-77.923-27.538-49.077-75.462-77.616Q496.923-626.154 440-626.154q-57.539 0-105.654 28.538Q286.23-569.077 258.692-520q27.538 49.693 75.654 77.923Q382.461-413.846 440-413.846Zm0-53.461q21.539 0 37.116-15.27 15.577-15.269 15.577-37.423 0-21.539-15.577-37.116-15.577-15.577-37.116-15.577-22.154 0-37.423 15.577-15.27 15.577-15.27 37.116 0 22.154 15.27 37.423 15.269 15.27 37.423 15.27Zm0 287.306q-70.769 0-132.615-26.77-61.846-26.769-107.846-72.768-45.999-46-72.768-107.846-26.77-61.846-26.77-132.615 0-70.154 26.77-131.999 26.769-61.846 72.768-108.154 46-46.307 107.846-73.076 61.846-26.77 132.615-26.77 70.154 0 131.999 26.77 61.846 26.769 108.154 73.076 46.307 46.308 73.076 108.154 26.77 61.845 26.77 131.999 0 64.692-22.308 121.769-22.308 57.077-61.923 102.384l163.615 164.231-31.614 31.615-164.231-164.231q-45.308 39.615-102.384 61.923Q504.077-180.001 440-180.001Z"/></svg>

<svg xmlns="http://www.w3.org/2000/svg" width="48" height="48" viewBox="0 -960 960 960"><path d="M440-225.39q122.69 0 208.65-85.96 85.96-85.96 85.96-208.65 0-122.69-85.96-208.65-85.96-85.96-208.65-85.96-122.69 0-208.65 85.96-85.96 85.96-85.96 208.65 0 122.69 85.96 208.65 85.96 85.96 208.65 85.96ZM440-520Zm0 153.85q-80.69 0-143.27-42.39-62.58-42.38-90.19-111.46 27.61-68.08 90.19-110.96 62.58-42.89 143.27-42.89 79.69 0 142.27 42.89 62.58 42.88 90.81 110.96-28.23 69.08-90.81 111.46-62.58 42.39-142.27 42.39Zm0-47.7q56.92 0 104.85-28.23 47.92-28.23 75.46-77.92-27.54-49.08-75.46-77.62-47.93-28.53-104.85-28.53-57.54 0-105.65 28.53-48.12 28.54-75.66 77.62 27.54 49.69 75.66 77.92 48.11 28.23 105.65 28.23Zm0-53.46q21.54 0 37.12-15.27 15.57-15.27 15.57-37.42 0-21.54-15.57-37.12-15.58-15.57-37.12-15.57-22.15 0-37.42 15.57-15.27 15.58-15.27 37.12 0 22.15 15.27 37.42 15.27 15.27 37.42 15.27ZM440-180q-70.77 0-132.61-26.77-61.85-26.77-107.85-72.77-46-46-72.77-107.85Q100-449.23 100-520q0-70.15 26.77-132 26.77-61.85 72.77-108.15 46-46.31 107.85-73.08Q369.23-860 440-860q70.15 0 132 26.77 61.85 26.77 108.15 73.08 46.31 46.3 73.08 108.15Q780-590.15 780-520q0 64.69-22.31 121.77t-61.92 102.38l163.61 164.23L827.77-100 663.54-264.23q-45.31 39.61-102.39 61.92Q504.08-180 440-180Z"/></svg>
